img/skills-icon/gulp.svg

<svg viewBox="0 0 362 800" xmlns="http://www.w3.org/2000/svg"><g fill="#d34a47"><path d="M338.15 0h1.36c8.59 1.59 15.84 7.98 20.07 15.41 1.82 2.91.96 6.48-1.75 8.44-27.36 28.64-54.57 57.42-81.91 86.09-2.21 2.44-5.14 4.64-5.73 8.09-5.05 20.23-10.25 40.42-15.29 60.64 24.74 1.5 49.49 3.83 73.84 8.52 9.38 2.02 19.01 3.96 27.53 8.55 2.51 1.47 5.7 3.77 4.92 7.12-.83 2.73-3.48 4.22-5.78 5.55-5.3 2.76-11.1 4.37-16.86 5.88-15.58 3.83-31.53 5.93-47.46 7.72-40.54 4.3-81.36 5.45-122.11 5.25-39.95-.62-79.99-2.28-119.56-8.03-12.51-1.97-25.11-4.09-37.06-8.39-3.83-1.56-8.07-3.1-10.65-6.53-1.85-2.55-.01-5.81 2.32-7.29 5.83-4.01 12.81-5.79 19.55-7.6 16.26-3.99 32.9-6.17 49.53-7.97 49.87-5.16 100.09-5.66 150.16-4.45 6.04-24.64 12.14-49.25 18.14-73.89.28-1.13.7-2.25 1.53-3.1 29-30.68 57.99-61.38 86.99-92.06 2.63-2.75 5.02-5.81 8.22-7.95M210.72 212.37c3.05 2.66 7.47 2.55 11.28 2.85 8.73-.07 17.58.58 26.2-1.17 2.22-.37 4.79-1.53 5.1-4.06.09-2.28-2.01-3.46-3.54-4.69-.55.51-1.65 1.52-2.21 2.03.64.79 1.27 1.58 1.89 2.39-11.53 1.97-23.41 2.05-34.96.16-.19-1.71-.67-3.33-2.04-4.45-2.34 1.52-3.7 4.52-1.72 6.94z"/><path d="M338.77 222.78c6.59-1.84 13.34-3.65 19.15-7.38-7.98 71.9-16 143.8-23.97 215.69 0 2.35-1.87 3.94-3.28 5.57-6.58 6.99-14.52 12.63-22.98 17.13-5.78 2.88-11.9 5.7-18.49 5.76.57-3.33 3.4-5.44 5.51-7.84 9.61-9.8 20.21-19.3 26.03-32 2.83-6.01 3.31-13.86-1.38-19.08-4.32-5.01-11.76-4.37-17.45-2.46-9.85 3.36-18.86 9.25-26.03 16.78 1.03-3.46 2.39-7.22 1.22-10.81-.81-2.53-3.66-3.62-6.1-3.68-2.76.26-4.17 3.02-5.19 5.26-2.89 7.01-4.47 14.5-7.6 21.42-3.56 8.44-9.83 15.46-16.95 21.09-5.58 4.46-12.56 6.37-19.19 8.65-1.65.56-3.38.84-5.1 1.03-1.85-5.37.36-10.95 1.76-16.15 8.67-26.8 20.91-52.25 31.79-78.18 2.39-6.27 4.55-12.79 4.76-19.55.1-3.41-1.37-7.9-5.31-8.33-2.58.34-4.24 2.61-5.76 4.49-4.01 5.68-6.7 12.14-9.45 18.49-6.27 14.94-11.63 30.24-17.89 45.18-5.03 11.9-9.41 24.11-12.55 36.65-1.16 4.28-1.9 9.2-5.65 12.09-4.39 3.64-9.8 6.74-15.66 6.68-1.71.18-2.84-1.34-3.66-2.6-1.75-3.72-.96-7.96-.13-11.8 3.28-13.91 10.85-26.33 14.53-40.1.81-2.52.89-6.95-2.71-7.08-3.54.6-5.9 3.66-7.86 6.4-5.87 8.67-9.54 18.55-14.07 27.94-1.93 3.89-4.95 7.07-7.66 10.41-5.09 5.89-10.37 11.84-17.07 15.94-2.42 1.5-5.96 2.59-8.43.66-2-2.61-1.14-6.18-.67-9.15 2.01-9.11 5.85-17.67 9.54-26.19 2.97-6.73 7.6-13.12 7.97-20.69.38-2.72-1.78-4.6-3.82-5.92-5.18 2.28-8.1 7.42-11.11 11.92-6.96 11.54-12.43 24.05-15.72 37.14-1.61 7.38-3.28 15.5-.21 22.73 2.84 6.36 10.97 7.64 17.13 6.72 11.91-2.19 20.57-12.02 26.44-21.99-.19 5.08-.41 10.74 2.88 15 2.84 3.89 8.05 5.05 12.62 4.58 7.04-.77 13.71-3.91 19.19-8.33 1.49 3.21 3.53 6.54 6.96 7.94 4.13 1.72 8.76.76 12.83-.65 9.21-3.17 17.02-9.16 24.93-14.65-5.82 18.7-16.35 35.55-22.15 54.26-.93 3.78-2.25 8.11-.25 11.78 1.27 2.01 4.12 2.49 6.03 1.07 4.62-3.18 7.33-8.32 10.08-13.05 8.71-16.08 14.17-33.62 21.87-50.16 5.91-13.03 12.18-26.27 22.05-36.83 6.92-7.13 16.58-12.76 26.82-11.74-.08 3.57-2.94 5.97-5.11 8.45-7.66 7.97-15.99 15.38-22.53 24.34-3.64 5.11-7.34 10.91-6.98 17.44.21 4.59 2.73 9.48 7.38 10.9 6.82 2.09 14.01-.25 20.44-2.64 10.52-4.39 20.55-10.28 28.9-18.08-5.27 47.32-10.5 94.64-15.79 141.96-.05 1.78-2.13 2.24-3.31 3.14-15.27 8.39-32.24 13.12-49.2 16.73-26.99 5.55-54.6 7.38-82.11 7.67-24.71.02-49.49-1.24-73.91-5.18-16.56-2.75-33.03-6.57-48.62-12.87-5.9-2.45-11.74-5.14-16.97-8.84-4.11-41.13-8.52-82.23-12.73-123.36 7.47 3.77 16.45 4.42 24.28 1.35 12.22-4.59 21.03-14.64 30.24-23.4-1.81 13.5-9.12 25.8-9.87 39.54-.06 2.36.02 4.99 1.62 6.88 1.97 2.17 5.62 1.74 7.5-.32 3.34-3.4 5.03-8.01 6.65-12.4 4.93-14.26 8.02-29.07 12.56-43.45 3.87-12.73 8.59-25.23 11.5-38.23.94-4.7 1.97-9.7.63-14.42-.76-2.8-4.05-4.54-6.79-3.58-2.2.86-3.77 2.77-4.94 4.76-5.8 9.94-6.45 21.96-12.06 31.96-7.34 11.04-16.54 20.9-27.11 28.91-5 3.48-10.71 7.25-17.09 6.59-4.11-.36-6.77-4.21-7.79-7.89-2.55-8.98-.89-18.51 1.38-27.37 4.66-16.87 12.18-32.83 21.01-47.88 6.99-11.52 14.47-23.77 26.7-30.37 5.24-2.85 11.94-5.27 17.63-2.24 6.46 3.9 8 11.99 12.84 17.34 3.82 4.45 12.92 1.83 13.07-4.29.07-5.51-2.91-10.52-6.02-14.87-5.34-6.93-12.2-13.34-20.8-15.78-7.27-1.57-14.93.04-21.64 3.02-10.96 4.91-19.61 13.71-26.85 23.09-14.69 19.46-24.11 42.19-32.53 64.89-7.28-66.06-13.7-132.23-20.8-198.32 11.31 6.28 24.26 8.61 36.84 11 36.33 6.13 73.26 7.52 110.03 8.46 47.71.65 95.56.15 143.07-4.8 15.69-1.75 31.38-3.97 46.69-7.9z"/><path d="M50.38 611.85c20.38 7.35 41.69 11.81 63.09 14.91 45.25 6.27 91.43 6.04 136.58-.94 19.71-3.19 39.33-7.53 58.1-14.45-6.44 10.83-12.73 21.76-19.16 32.59-1.07 1.84-2.39 3.7-2.42 5.92-2.51 42.09-5.01 84.17-7.59 126.25-1.23 6.82-8.74 9.7-14.38 12.2-22.21 8.23-46.15 10.14-69.62 11.28-28.48.69-57.3-.39-85.08-7.19-7.27-1.89-14.58-4.17-21-8.18-2.86-1.88-5.99-4.47-6.23-8.16-2.96-41.44-5.4-82.94-8.59-124.35-7.51-13.5-15.98-26.49-23.7-39.88z"/></g><path fill="#fff" d="M210.72 212.37c-1.98-2.42-.62-5.42 1.72-6.94 1.37 1.12 1.85 2.74 2.04 4.45 11.55 1.89 23.43 1.81 34.96-.16-.62-.81-1.25-1.6-1.89-2.39.56-.51 1.66-1.52 2.21-2.03 1.53 1.23 3.63 2.41 3.54 4.69-.31 2.53-2.88 3.69-5.1 4.06-8.62 1.75-17.47 1.1-26.2 1.17-3.81-.3-8.23-.19-11.28-2.85z"/></svg>

<?xml version="1.0" encoding="UTF-8" ?>
<!DOCTYPE svg PUBLIC "-//W3C//DTD SVG 1.1//EN" "http://www.w3.org/Graphics/SVG/1.1/DTD/svg11.dtd">
<svg viewBox="0 0 362 800" version="1.1" xmlns="http://www.w3.org/2000/svg">
<g id="#d34a47ff">
<path fill="#d34a47" opacity="1.00" d=" M 338.15 0.00 L 339.51 0.00 C 348.10 1.59 355.35 7.98 359.58 15.41 C 361.40 18.32 360.54 21.89 357.83 23.85 C 330.47 52.49 303.26 81.27 275.92 109.94 C 273.71 112.38 270.78 114.58 270.19 118.03 C 265.14 138.26 259.94 158.45 254.90 178.67 C 279.64 180.17 304.39 182.50 328.74 187.19 C 338.12 189.21 347.75 191.15 356.27 195.74 C 358.78 197.21 361.97 199.51 361.19 202.86 C 360.36 205.59 357.71 207.08 355.41 208.41 C 350.11 211.17 344.31 212.78 338.55 214.29 C 322.97 218.12 307.02 220.22 291.09 222.01 C 250.55 226.31 209.73 227.46 168.98 227.26 C 129.03 226.64 88.99 224.98 49.42 219.23 C 36.91 217.26 24.31 215.14 12.36 210.84 C 8.53 209.28 4.29 207.74 1.71 204.31 C -0.14 201.76 1.70 198.50 4.03 197.02 C 9.86 193.01 16.84 191.23 23.58 189.42 C 39.84 185.43 56.48 183.25 73.11 181.45 C 122.98 176.29 173.20 175.79 223.27 177.00 C 229.31 152.36 235.41 127.75 241.41 103.11 C 241.69 101.98 242.11 100.86 242.94 100.01 C 271.94 69.33 300.93 38.63 329.93 7.95 C 332.56 5.20 334.95 2.14 338.15 0.00 M 210.72 212.37 C 213.77 215.03 218.19 214.92 222.00 215.22 C 230.73 215.15 239.58 215.80 248.20 214.05 C 250.42 213.68 252.99 212.52 253.30 209.99 C 253.39 207.71 251.29 206.53 249.76 205.30 C 249.21 205.81 248.11 206.82 247.55 207.33 C 248.19 208.12 248.82 208.91 249.44 209.72 C 237.91 211.69 226.03 211.77 214.48 209.88 C 214.29 208.17 213.81 206.55 212.44 205.43 C 210.10 206.95 208.74 209.95 210.72 212.37 Z" />
<path fill="#d34a47" opacity="1.00" d=" M 338.77 222.78 C 345.36 220.94 352.11 219.13 357.92 215.40 C 349.94 287.30 341.92 359.20 333.95 431.09 C 333.95 433.44 332.08 435.03 330.67 436.66 C 324.09 443.65 316.15 449.29 307.69 453.79 C 301.91 456.67 295.79 459.49 289.20 459.55 C 289.77 456.22 292.60 454.11 294.71 451.71 C 304.32 441.91 314.92 432.41 320.74 419.71 C 323.57 413.70 324.05 405.85 319.36 400.63 C 315.04 395.62 307.60 396.26 301.91 398.17 C 292.06 401.53 283.05 407.42 275.88 414.95 C 276.91 411.49 278.27 407.73 277.10 404.14 C 276.29 401.61 273.44 400.52 271.00 400.46 C 268.24 400.72 266.83 403.48 265.81 405.72 C 262.92 412.73 261.34 420.22 258.21 427.14 C 254.65 435.58 248.38 442.60 241.26 448.23 C 235.68 452.69 228.70 454.60 222.07 456.88 C 220.42 457.44 218.69 457.72 216.97 457.91 C 215.12 452.54 217.33 446.96 218.73 441.76 C 227.40 414.96 239.64 389.51 250.52 363.58 C 252.91 357.31 255.07 350.79 255.28 344.03 C 255.38 340.62 253.91 336.13 249.97 335.70 C 247.39 336.04 245.73 338.31 244.21 340.19 C 240.20 345.87 237.51 352.33 234.76 358.68 C 228.49 373.62 223.13 388.92 216.87 403.86 C 211.84 415.76 207.46 427.97 204.32 440.51 C 203.16 444.79 202.42 449.71 198.67 452.60 C 194.28 456.24 188.87 459.34 183.01 459.28 C 181.30 459.46 180.17 457.94 179.35 456.68 C 177.60 452.96 178.39 448.72 179.22 444.88 C 182.50 430.97 190.07 418.55 193.75 404.78 C 194.56 402.26 194.64 397.83 191.04 397.70 C 187.50 398.30 185.14 401.36 183.18 404.10 C 177.31 412.77 173.64 422.65 169.11 432.04 C 167.18 435.93 164.16 439.11 161.45 442.45 C 156.36 448.34 151.08 454.29 144.38 458.39 C 141.96 459.89 138.42 460.98 135.95 459.05 C 133.95 456.44 134.81 452.87 135.28 449.90 C 137.29 440.79 141.13 432.23 144.82 423.71 C 147.79 416.98 152.42 410.59 152.79 403.02 C 153.17 400.30 151.01 398.42 148.97 397.10 C 143.79 399.38 140.87 404.52 137.86 409.02 C 130.90 420.56 125.43 433.07 122.14 446.16 C 120.53 453.54 118.86 461.66 121.93 468.89 C 124.77 475.25 132.90 476.53 139.06 475.61 C 150.97 473.42 159.63 463.59 165.50 453.62 C 165.31 458.70 165.09 464.36 168.38 468.62 C 171.22 472.51 176.43 473.67 181.00 473.20 C 188.04 472.43 194.71 469.29 200.19 464.87 C 201.68 468.08 203.72 471.41 207.15 472.81 C 211.28 474.53 215.91 473.57 219.98 472.16 C 229.19 468.99 237.00 463.00 244.91 457.51 C 239.09 476.21 228.56 493.06 222.76 511.77 C 221.83 515.55 220.51 519.88 222.51 523.55 C 223.78 525.56 226.63 526.04 228.54 524.62 C 233.16 521.44 235.87 516.30 238.62 511.57 C 247.33 495.49 252.79 477.95 260.49 461.41 C 266.40 448.38 272.67 435.14 282.54 424.58 C 289.46 417.45 299.12 411.82 309.36 412.84 C 309.28 416.41 306.42 418.81 304.25 421.29 C 296.59 429.26 288.26 436.67 281.72 445.63 C 278.08 450.74 274.38 456.54 274.74 463.07 C 274.95 467.66 277.47 472.55 282.12 473.97 C 288.94 476.06 296.13 473.72 302.56 471.33 C 313.08 466.94 323.11 461.05 331.46 453.25 C 326.19 500.57 320.96 547.89 315.67 595.21 C 315.62 596.99 313.54 597.45 312.36 598.35 C 297.09 606.74 280.12 611.47 263.16 615.08 C 236.17 620.63 208.56 622.46 181.05 622.75 C 156.34 622.77 131.56 621.51 107.14 617.57 C 90.58 614.82 74.11 611.00 58.52 604.70 C 52.62 602.25 46.78 599.56 41.55 595.86 C 37.44 554.73 33.03 513.63 28.82 472.50 C 36.29 476.27 45.27 476.92 53.10 473.85 C 65.32 469.26 74.13 459.21 83.34 450.45 C 81.53 463.95 74.22 476.25 73.47 489.99 C 73.41 492.35 73.49 494.98 75.09 496.87 C 77.06 499.04 80.71 498.61 82.59 496.55 C 85.93 493.15 87.62 488.54 89.24 484.15 C 94.17 469.89 97.26 455.08 101.80 440.70 C 105.67 427.97 110.39 415.47 113.30 402.47 C 114.24 397.77 115.27 392.77 113.93 388.05 C 113.17 385.25 109.88 383.51 107.14 384.47 C 104.94 385.33 103.37 387.24 102.20 389.23 C 96.40 399.17 95.75 411.19 90.14 421.19 C 82.80 432.23 73.60 442.09 63.03 450.10 C 58.03 453.58 52.32 457.35 45.94 456.69 C 41.83 456.33 39.17 452.48 38.15 448.80 C 35.60 439.82 37.26 430.29 39.53 421.43 C 44.19 404.56 51.71 388.60 60.54 373.55 C 67.53 362.03 75.01 349.78 87.24 343.18 C 92.48 340.33 99.18 337.91 104.87 340.94 C 111.33 344.84 112.87 352.93 117.71 358.28 C 121.53 362.73 130.63 360.11 130.78 353.99 C 130.85 348.48 127.87 343.47 124.76 339.12 C 119.42 332.19 112.56 325.78 103.96 323.34 C 96.69 321.77 89.03 323.38 82.32 326.36 C 71.36 331.27 62.71 340.07 55.47 349.45 C 40.78 368.91 31.36 391.64 22.94 414.34 C 15.66 348.28 9.24 282.11 2.14 216.02 C 13.45 222.30 26.40 224.63 38.98 227.02 C 75.31 233.15 112.24 234.54 149.01 235.48 C 196.72 236.13 244.57 235.63 292.08 230.68 C 307.77 228.93 323.46 226.71 338.77 222.78 Z" />
<path fill="#d34a47" opacity="1.00" d=" M 50.38 611.85 C 70.76 619.20 92.07 623.66 113.47 626.76 C 158.72 633.03 204.90 632.80 250.05 625.82 C 269.76 622.63 289.38 618.29 308.15 611.37 C 301.71 622.20 295.42 633.13 288.99 643.96 C 287.92 645.80 286.60 647.66 286.57 649.88 C 284.06 691.97 281.56 734.05 278.98 776.13 C 277.75 782.95 270.24 785.83 264.60 788.33 C 242.39 796.56 218.45 798.47 194.98 799.61 C 166.50 800.30 137.68 799.22 109.90 792.42 C 102.63 790.53 95.32 788.25 88.90 784.24 C 86.04 782.36 82.91 779.77 82.67 776.08 C 79.71 734.64 77.27 693.14 74.08 651.73 C 66.57 638.23 58.10 625.24 50.38 611.85 Z" />
</g>
<g id="#ffffffff">
<path fill="#ffffff" opacity="1.00" d=" M 210.72 212.37 C 208.74 209.95 210.10 206.95 212.44 205.43 C 213.81 206.55 214.29 208.17 214.48 209.88 C 226.03 211.77 237.91 211.69 249.44 209.72 C 248.82 208.91 248.19 208.12 247.55 207.33 C 248.11 206.82 249.21 205.81 249.76 205.30 C 251.29 206.53 253.39 207.71 253.30 209.99 C 252.99 212.52 250.42 213.68 248.20 214.05 C 239.58 215.80 230.73 215.15 222.00 215.22 C 218.19 214.92 213.77 215.03 210.72 212.37 Z" />
</g>
</svg>
